assets/icons/document/history-filled.svg

<?xml version="1.0" encoding="UTF-8" standalone="no"?>
<svg
   viewBox="0 0 24 24"
   height="24"
   id="svg7384"
   version="1.1"
   width="24"
   sodipodi:docname="history-filled.svg"
   inkscape:version="1.2 (1:1.2.1+202207142221+cd75a1ee6d)"
   xmlns:inkscape="http://www.inkscape.org/namespaces/inkscape"
   xmlns:sodipodi="http://sodipodi.sourceforge.net/DTD/sodipodi-0.dtd"
   xmlns="http://www.w3.org/2000/svg"
   xmlns:svg="http://www.w3.org/2000/svg"
   xmlns:rdf="http://www.w3.org/1999/02/22-rdf-syntax-ns#"
   xmlns:cc="http://creativecommons.org/ns#"
   xmlns:dc="http://purl.org/dc/elements/1.1/">
  <sodipodi:namedview
     id="namedview21"
     pagecolor="#ffffff"
     bordercolor="#666666"
     borderopacity="1.0"
     inkscape:pageshadow="2"
     inkscape:pageopacity="0.0"
     inkscape:pagecheckerboard="0"
     showgrid="false"
     width="24px"
     inkscape:zoom="32"
     inkscape:cx="6.75"
     inkscape:cy="12.90625"
     inkscape:window-width="1920"
     inkscape:window-height="1043"
     inkscape:window-x="0"
     inkscape:window-y="0"
     inkscape:window-maximized="1"
     inkscape:current-layer="svg7384"
     inkscape:showpageshadow="2"
     inkscape:deskcolor="#d1d1d1">
    <inkscape:grid
       type="xygrid"
       id="grid837"
       dotted="false" />
    <inkscape:grid
       type="xygrid"
       id="grid839"
       dotted="true"
       spacingx="0.5"
       spacingy="0.5"
       empspacing="10" />
  </sodipodi:namedview>
  <metadata
     id="metadata20854">
    <rdf:RDF>
      <cc:Work
         rdf:about="">
        <dc:format>image/svg+xml</dc:format>
        <dc:type
           rdf:resource="http://purl.org/dc/dcmitype/StillImage" />
      </cc:Work>
    </rdf:RDF>
  </metadata>
  <defs
     id="defs7386">
    <linearGradient
       id="linearGradient5606"
       inkscape:swatch="solid">
      <stop
         id="stop5608"
         offset="0"
         style="stop-color:#000000;stop-opacity:1;" />
    </linearGradient>
    <linearGradient
       id="linearGradient4526"
       inkscape:swatch="solid">
      <stop
         id="stop4528"
         offset="0"
         style="stop-color:#ffffff;stop-opacity:1;" />
    </linearGradient>
    <linearGradient
       id="linearGradient3600-4"
       inkscape:swatch="gradient">
      <stop
         id="stop3602-7"
         offset="0"
         style="stop-color:#f4f4f4;stop-opacity:1" />
      <stop
         id="stop3604-6"
         offset="1"
         style="stop-color:#dbdbdb;stop-opacity:1" />
    </linearGradient>
  </defs>
  <path
     id="path1888"
     style="opacity:1;fill:#808080;fill-rule:evenodd;stroke:none;stroke-width:2;stroke-linecap:round;stroke-linejoin:round;stroke-dasharray:2, 4"
     d="M 16.5 11 A 5.5 5.5 0 0 0 11 16.5 A 5.5 5.5 0 0 0 16.5 22 A 5.5 5.5 0 0 0 22 16.5 A 5.5 5.5 0 0 0 16.5 11 z M 16 13 L 17 13 L 17 13.5 L 17 16.792969 L 18.353516 18.146484 L 18.707031 18.5 L 18 19.207031 L 17.646484 18.853516 L 16 17.207031 L 16 13.5 L 16 13 z " />
  <path
     id="path874"
     style="color:#000000;fill:#808080;fill-opacity:1"
     d="M 6.4550781 2 C 5.4865022 2.00898 4.7372561 2.0732714 4.1171875 2.4453125 C 3.7038084 2.6933402 3.3972491 3.1012225 3.2285156 3.6074219 C 3.0597827 4.1136213 3 4.722227 3 5.5 L 3 15.5 C 3 16.277772 3.0585592 16.891314 3.25 17.408203 C 3.4414411 17.925097 3.8029654 18.335075 4.2773438 18.572266 C 5.2260995 19.046641 6.5006696 18.948718 8.5 19 L 10.513672 19 A 6.5 6.5 0 0 1 10 16.5 A 6.5 6.5 0 0 1 10.035156 16 L 6 16 L 6 15 L 10.191406 15 A 6.5 6.5 0 0 1 10.513672 14 L 6 14 L 6 13 L 11.023438 13 A 6.5 6.5 0 0 1 11.832031 12 L 6 12 L 6 11 L 13.042969 11 A 6.5 6.5 0 0 1 16.5 10 A 6.5 6.5 0 0 1 18 10.177734 L 18 8 L 13 8 L 12 8 L 12 2 L 7.5 2 C 7.1250024 2 6.7779369 1.99701 6.4550781 2 z M 13 2.2929688 L 13 7 L 17.707031 7 L 13 2.2929688 z M 6 9 L 14.5 9 L 14.5 10 L 6 10 L 6 9 z " />
</svg>

<svg height="24" width="24" xmlns="http://www.w3.org/2000/svg"><path style="opacity:1;fill:gray;stroke:none;stroke-width:2;stroke-linecap:round;stroke-linejoin:round;stroke-dasharray:2,4" d="M16.5 11a5.5 5.5 0 0 0-5.5 5.5 5.5 5.5 0 0 0 5.5 5.5 5.5 5.5 0 0 0 5.5-5.5 5.5 5.5 0 0 0-5.5-5.5zm-.5 2h1v3.793l1.354 1.353.353.354-.707.707-.354-.353L16 17.207V13z"/><path style="color:#000;fill:gray;fill-opacity:1" d="M6.455 2c-.968.009-1.718.073-2.338.445-.413.248-.72.656-.888 1.162C3.059 4.114 3 4.722 3 5.5v10c0 .778.059 1.391.25 1.908.191.517.553.927 1.027 1.164.95.475 2.224.377 4.223.428h2.014A6.5 6.5 0 0 1 10 16.5a6.5 6.5 0 0 1 .035-.5H6v-1h4.191a6.5 6.5 0 0 1 .323-1H6v-1h5.023a6.5 6.5 0 0 1 .809-1H6v-1h7.043a6.5 6.5 0 0 1 3.457-1 6.5 6.5 0 0 1 1.5.178V8h-6V2H7.5c-.375 0-.722-.003-1.045 0zM13 2.293V7h4.707L13 2.293zM6 9h8.5v1H6V9z"/></svg>
